!!!!SEGMENT:Yachiyo.krn
!!!OTL: 八千代
!!!OPR:Eiga Banso Kyokusyu,jidai-geki,kouhen
!!!YOY:1928
!!!ONB:Shizukanarukeshiki
**kern
*clefG2
*k[]
*C:
*M2/4
4ee
=1
8ccL
8b
8cc
8ccJ
=2
8r
8eeL
8cc
8bJ
=3
8aL
(8a
8b)
(8aJ
=4
8bL)
(8a
8b)
8aJ
=5
8bL
8bJ
8r
16bLL
16bJJ
=6
4e
4r
=7
4b
4e
=8
4dd
4dd
=9
4dd
4dd
=10
8ee
4ee
8ff
=11
8.eeL
16ccJk
4b
=12
8aL
(8a
8b)
8aJ
=13
4b
4dd
=14
4ee
8ccL
8bJ
=15
8ccL
8cc
8b
8aJ
=16
4e
[4f
=17
4f]
8BL
16aL
16aJJ
=18
8bL
8a
8b
8aJ
=19
4e
8fL
8eJ
=20||
*M3/4
8.eL
16cJk
4B
4r
=21||
*M2/4
4d
4d
=22
4e
8fL
8fJ
=23
8r
8a
4f
=24
8eL
8cJ
4B
=25
4a
4a
=26
4b
8ccL
8ccJ
=27
4cc
8ccL
8ccJ
=28
8bL
8a
8b
8ddJ
=29
8eeL
8ccJ
4b
=30
4a
8.bL
16ddJk
=31
8eeL
8ee
8b
8aJ
=32||
*M3/4
8bL
8aJ
4f
4r
=33
*M2/4
8fL
8eJ
8dL
8eJ
=34
8fL
(8a
8b)
(8aJ
=35
4b)
4dd
=36
8eeL
8ee
8ee
8ddJ
=37
4ee
4ff
=38
4r
4e
=39
4e
4d
=40
8eL
8e
8c
8BJ
=41
4B
4r
=42
8f#XL
8dJ
8.eL
16cJk
=43
4B
4r
=44||
*M3/4
4d
4e
4d
=45||
*M2/4
4e
4cc
=46
4ee
8ccL
8bJ
=47
8ccL
8ccJ
8bL
8aJ
=48
4e
4f
=49
4r
8eL
8eJ
=50
8eL
(8dJ
8eL)
8dJ
=51
4e
4aa
=52
4ff
4ee
=53
8ddL
8ddJ
8.ddL
16eeJk
=54
4b
8ccL
8bJ
=55
4a
(4a
=56
4b)
(4a
=57
4b)
(4a
=58
4b)
(4a
=59
4b)
4b
=60
4r
8r
16bLL
16bJJ
=61
4e
4r
==
*-
!!!ENC: Yukiko Yoden
!!!END: 2023/06/11
